X:11657
%19288
T:ÃTÃ (L'). CJF.002
T:L'ÃTÃ. CJF.002
M:2/4
L:1/8
Q:1/4=160
S:C.J.Fox MS, 1829/33, Beverley,E.Yorks.
R:Quadrille
O:England
A:East Yorkshire
B:Kidson Coll.Mitchell Lib.M1805
N:Part of the Quadrille 1st set. CGP.
Z:P J Headford 2000
K:Cmaj
Gc|BG AA|G2FA|EG DF|EC Gc|BG AA|G2F/2G/2A/2F/2|EG FD|
C2
%Error : Bar 8 is 1/4 not 2/4
||
%Error : '!' or '+' in middle of line ignored
EG
%Error : Bar 9 is 1/4 not 2/4
|A/2^G/2F/2E/2 A/2B/2c/2d/2|BE .e(e/2c/2)|.d(d/2B/2) .c(c/2A/2)|E2ee|"tr"c2dd|
%Error : Guitar chord name not properly closed
""

%Error : Unrecognized character: t

%Error : Unrecognized character: r

%Error : Guitar chord name not properly closed
"bb2a/c/bb/c/|\"
Ac B^G|A2:|
%Error : Bar 17 is 1/4 not 2/4
|
%Error : '!' or '+' in middle of line ignored
Gc
%Error : Bar 18 is 1/4 not 2/4
|BG AA|
G2FA|EG DF|EC Gc|BG AA|G2F/2G/2A/2F/2|EG FD|C2
%Error : Bar 26 is 1/4 not 2/4
||


